src/assets/img/library.svg

<svg
  width="20"
  height="16"
  viewBox="0 0 20 16"
  fill="none"
  xmlns="http://www.w3.org/2000/svg">
  <path
  opacity="0.4"
  fill-rule="evenodd"
  clip-rule="evenodd"
  d="M1.81377 0C0.818072 0 0 0.793984 0 1.77341V14.2266C0 15.2066 0.814396 16 1.819 16H18.181C19.185 16 20 15.2042 20 14.2225V4.44412C20 3.4608 19.1843 2.66667 18.1781 2.66667H10.0034L8.71574 0.742815C8.441 0.332343 7.81071 0 7.30762 0H1.81377ZM18.181 14.2222L1.81818 14.2266L1.81377 1.77778L7.27273 1.78212L8.48211 3.64019C8.818 4.14203 9.39005 4.44444 10.0034 4.44444L18.1818 4.44412L18.181 14.2222Z"
  fill="white"/>
</svg>

<svg
  width="20"
  height="16"
  fill="none"
  xmlns="http://www.w3.org/2000/svg">
  <path
  opacity=".4"
  fill-rule="evenodd"
  clip-rule="evenodd"
  d="M1.814 0C.818 0 0 .794 0 1.773v12.454C0 15.207.814 16 1.819 16h16.362C19.185 16 20 15.204 20 14.223V4.444c0-.983-.816-1.777-1.822-1.777h-8.175L8.716.743C8.44.333 7.81 0 7.308 0H1.814ZM18.18 14.222l-16.363.005-.004-12.45 5.459.005 1.21 1.858a1.83 1.83 0 0 0 1.52.804h8.179l-.001 9.778Z"
  fill="#fff"/>
</svg>
